2025-02-27 13:04:53,357 - Sent coordinates: X=2, Y=2, Z=2, Rx=2, Ry=2, Rz=2
2025-02-27 13:15:27,452 - Sent coordinates: X=2, Y=2, Z=2, Rx=2, Ry=2, Rz=2
2025-03-05 15:36:14,166 - Error creating booking: (builtins.TypeError) SQLite Date type only accepts Python date objects as input.
[SQL: INSERT INTO bookings (user_id, robot_name, date, time_slot) VALUES (?, ?, ?, ?)]
[parameters: [{'time_slot': '12:00 - 14:00', 'date': '2025-03-20', 'robot_name': 'UR5e', 'user_id': 1}]]
2025-03-05 15:36:21,711 - Error creating booking: (builtins.TypeError) SQLite Date type only accepts Python date objects as input.
[SQL: INSERT INTO bookings (user_id, robot_name, date, time_slot) VALUES (?, ?, ?, ?)]
[parameters: [{'time_slot': '12:00 - 14:00', 'date': '2025-03-12', 'robot_name': 'UR5e', 'user_id': 1}]]
2025-03-05 15:44:01,650 - ❌ Error sending email: (535, b'5.7.8 Username and Password not accepted. For more information, go to\n5.7.8  https://support.google.com/mail/?p=BadCredentials a640c23a62f3a-abf422954c4sm872696466b.168 - gsmtp')
2025-03-05 15:45:48,942 - ❌ Error sending email: (535, b'5.7.8 Username and Password not accepted. For more information, go to\n5.7.8  https://support.google.com/mail/?p=BadCredentials a640c23a62f3a-abf70b47411sm589389166b.79 - gsmtp')
2025-03-05 15:46:48,900 - ❌ Error sending email: (535, b'5.7.8 Username and Password not accepted. For more information, go to\n5.7.8  https://support.google.com/mail/?p=BadCredentials a640c23a62f3a-ac1ea18e32csm357298066b.137 - gsmtp')
2025-03-10 14:47:35,815 - ❌ Error sending email: (535, b'5.7.8 Username and Password not accepted. For more information, go to\n5.7.8  https://support.google.com/mail/?p=BadCredentials a640c23a62f3a-ac284f76a22sm349796666b.149 - gsmtp')
2025-03-10 14:50:39,919 - ❌ Error sending email: (535, b'5.7.8 Username and Password not accepted. For more information, go to\n5.7.8  https://support.google.com/mail/?p=BadCredentials a640c23a62f3a-ac299a025c7sm235832666b.51 - gsmtp')
2025-03-10 15:20:07,095 - ❌ Error sending email: (535, b'5.7.8 Username and Password not accepted. For more information, go to\n5.7.8  https://support.google.com/mail/?p=BadCredentials 4fb4d7f45d1cf-5e5c76913bbsm6872653a12.78 - gsmtp')
2025-03-17 12:52:31,080 - Moved joints to: J1=0.05, J2=0, J3=0, J4=0, J5=0, J6=0
2025-03-17 12:52:45,316 - Moved joints to: J1=0.05, J2=0.05, J3=0, J4=0, J5=0, J6=0
2025-03-17 12:52:46,765 - Moved joints to: J1=0.05, J2=0.05, J3=0.05, J4=0, J5=0, J6=0
2025-03-17 12:52:49,956 - Moved joints to: J1=0.05, J2=0.05, J3=0.05, J4=0, J5=0, J6=0.05
2025-03-17 12:52:51,128 - Moved joints to: J1=0.05, J2=0.05, J3=0.05, J4=0, J5=0.05, J6=0.05
2025-03-17 12:52:52,149 - Moved joints to: J1=0.05, J2=0.05, J3=0.05, J4=0.05, J5=0.05, J6=0.05
2025-03-17 12:53:52,657 - Sent script:
movej([0, 0, 0, 0, 0, 0])
2025-03-17 12:54:13,426 - Sent script:
movej([0, 0, 0, 0, 0, 0])
2025-03-17 12:54:32,449 - Sent script:
movej([0, 0, 0, 1.2, 0, 0])
2025-03-17 12:55:59,504 - Sent script:
movej([0, 0, 0, 1.2, 0, 0])
2025-03-17 12:56:02,334 - Sent script:
movej([0, 0, 0, 1.2, 0, 0])
2025-03-17 12:57:08,353 - Moved joints to: J1=0.05, J2=0, J3=0, J4=0, J5=0, J6=0
2025-03-17 12:57:34,677 - Moved joints to: J1=0.1, J2=0, J3=0, J4=0, J5=0, J6=0
2025-03-17 12:57:35,275 - Moved joints to: J1=0.15000000000000002, J2=0, J3=0, J4=0, J5=0, J6=0
2025-03-17 12:57:36,254 - Moved joints to: J1=0.2, J2=0, J3=0, J4=0, J5=0, J6=0
2025-03-17 12:57:40,913 - Moved joints to: J1=0.25, J2=0, J3=0, J4=0, J5=0, J6=0
2025-03-17 12:57:42,099 - Moved joints to: J1=0.3, J2=0, J3=0, J4=0, J5=0, J6=0
2025-03-17 12:57:42,202 - Moved joints to: J1=0.35, J2=0, J3=0, J4=0, J5=0, J6=0
2025-03-17 13:02:43,421 - Sent coordinates: J1=1, J2=0, J3=0, J4=0, J5=0, J6=0
2025-03-17 13:03:13,193 - Sent coordinates: J1=-1, J2=0, J3=0, J4=0, J5=0, J6=0
2025-03-17 13:04:00,177 - Sent coordinates: J1=-1.57, J2=-1.57, J3=1.57, J4=-1.57, J5=0, J6=0
2025-03-17 13:04:03,179 - Sent coordinates: J1=-1.57, J2=-1.57, J3=1.57, J4=-1.57, J5=0, J6=0
2025-03-17 13:04:39,875 - Sent coordinates: J1=-1.57, J2=-1.57, J3=1.57, J4=-1.57, J5=0, J6=0
2025-03-17 13:04:46,615 - Sent coordinates: J1=-1.57, J2=-1.57, J3=1.57, J4=-1.57, J5=0, J6=0
2025-03-17 13:05:03,354 - Sent coordinates: J1=-1.57, J2=-1.57, J3=1.57, J4=-1.57, J5=0, J6=0
2025-03-17 13:05:16,030 - Sent coordinates: J1=-1.57, J2=-1.57, J3=1.57, J4=0, J5=0, J6=0
2025-03-17 13:06:28,331 - Moved joints to: J1=0.39999999999999997, J2=0, J3=0, J4=0, J5=0, J6=0
2025-03-17 13:06:54,199 - Moved joints to: J1=0.39999999999999997, J2=0, J3=0, J4=0, J5=0.05, J6=0
2025-03-17 13:06:59,827 - Moved joints to: J1=0, J2=0, J3=0, J4=0, J5=0, J6=0.05
2025-03-17 13:07:01,250 - Moved joints to: J1=0, J2=0, J3=0, J4=0, J5=0, J6=0.1
2025-03-17 13:07:03,485 - Moved joints to: J1=0, J2=0, J3=0, J4=0, J5=0, J6=0.15000000000000002
2025-03-17 13:07:09,965 - Moved joints to: J1=0.05, J2=0, J3=0, J4=0, J5=0, J6=0.15000000000000002
2025-03-17 13:07:11,763 - Moved joints to: J1=0.1, J2=0, J3=0, J4=0, J5=0, J6=0.15000000000000002
2025-03-17 13:07:12,185 - Moved joints to: J1=0.15000000000000002, J2=0, J3=0, J4=0, J5=0, J6=0.15000000000000002
2025-03-17 13:07:12,327 - Moved joints to: J1=0.2, J2=0, J3=0, J4=0, J5=0, J6=0.15000000000000002
2025-03-17 13:07:15,057 - Moved joints to: J1=0.25, J2=0, J3=0, J4=0, J5=0, J6=0.15000000000000002
2025-03-17 13:07:16,276 - Moved joints to: J1=0.3, J2=0, J3=0, J4=0, J5=0, J6=0.15000000000000002
2025-03-17 13:07:17,919 - Moved joints to: J1=0.35, J2=0, J3=0, J4=0, J5=0, J6=0.15000000000000002
2025-03-17 13:08:21,008 - Sent script:
movej([0, 0, 0, 0, 0, 0])
2025-03-17 13:34:29,926 - Moved joints to: J1=-1.52, J2=1.57, J3=1.57, J4=-1.57, J5=1.57, J6=0
2025-03-17 13:34:31,224 - Moved joints to: J1=-1.47, J2=1.57, J3=1.57, J4=-1.57, J5=1.57, J6=0
2025-03-17 13:34:32,053 - Moved joints to: J1=-1.42, J2=1.57, J3=1.57, J4=-1.57, J5=1.57, J6=0
2025-03-17 13:34:33,351 - Moved joints to: J1=-1.3699999999999999, J2=1.57, J3=1.57, J4=-1.57, J5=1.57, J6=0
2025-03-17 13:34:39,387 - Moved joints to: J1=-1.3199999999999998, J2=1.57, J3=1.57, J4=-1.57, J5=1.57, J6=0
2025-03-17 13:34:41,994 - Moved joints to: J1=-1.2699999999999998, J2=1.57, J3=1.57, J4=-1.57, J5=1.57, J6=0
2025-03-17 13:34:42,650 - Moved joints to: J1=-1.2199999999999998, J2=1.57, J3=1.57, J4=-1.57, J5=1.57, J6=0
2025-03-17 13:34:43,166 - Moved joints to: J1=-1.1699999999999997, J2=1.57, J3=1.57, J4=-1.57, J5=1.57, J6=0
2025-03-17 13:34:43,697 - Moved joints to: J1=-1.1199999999999997, J2=1.57, J3=1.57, J4=-1.57, J5=1.57, J6=0
2025-03-17 13:34:44,229 - Moved joints to: J1=-1.0699999999999996, J2=1.57, J3=1.57, J4=-1.57, J5=1.57, J6=0
2025-03-17 13:34:44,745 - Moved joints to: J1=-1.0199999999999996, J2=1.57, J3=1.57, J4=-1.57, J5=1.57, J6=0
2025-03-17 13:34:45,276 - Moved joints to: J1=-0.9699999999999995, J2=1.57, J3=1.57, J4=-1.57, J5=1.57, J6=0
2025-03-17 13:34:45,698 - Moved joints to: J1=-0.9199999999999995, J2=1.57, J3=1.57, J4=-1.57, J5=1.57, J6=0
2025-03-17 13:34:46,089 - Moved joints to: J1=-0.8699999999999994, J2=1.57, J3=1.57, J4=-1.57, J5=1.57, J6=0
2025-03-17 13:40:40,018 - Moved joints to: J1=-1.52, J2=1.57, J3=1.57, J4=-1.57, J5=1.57, J6=0
2025-03-17 13:41:47,454 - Moved joints to: J1=-1.52, J2=1.57, J3=1.57, J4=-1.57, J5=1.57, J6=0
2025-03-17 13:42:13,825 - Moved joints to: J1=-1.52, J2=1.57, J3=1.57, J4=-1.57, J5=1.57, J6=0
2025-03-17 13:43:19,110 - Sent coordinates: J1=-1.52, J2=1.57, J3=1.57, J4=-1.57, J5=1.57, J6=0
2025-03-17 13:44:54,500 - Sent coordinates: J1=-1.52, J2=-1.57, J3=-1.57, J4=-1.57, J5=1.57, J6=0
2025-03-17 13:46:25,089 - Sent coordinates: J1=-1.52, J2=-1.57, J3=-1.57, J4=-1.57, J5=1.57, J6=0
2025-03-17 13:47:33,497 - Sent coordinates: J1=-1.52, J2=-1.57, J3=-1.57, J4=-1.57, J5=1.57, J6=0
2025-03-17 13:48:44,311 - Sent coordinates: J1=-1.52, J2=-1.57, J3=-1.57, J4=-1.57, J5=1.57, J6=0
2025-03-17 13:49:12,478 - Sent coordinates: J1=-1.52, J2=1.57, J3=1.57, J4=-1.57, J5=1.57, J6=0
2025-03-17 13:50:22,274 - Sent coordinates: J1=-1.52, J2=-1.57, J3=-1.57, J4=-1.57, J5=1.57, J6=0
2025-03-17 13:55:43,841 - Sent coordinates: J1=-1.52, J2=-1.57, J3=-1.57, J4=-1.57, J5=1.57, J6=0
2025-03-17 13:56:49,602 - Sent coordinates: J1=-1.52, J2=-1.57, J3=1.57, J4=-1.57, J5=1.57, J6=0
2025-03-17 13:57:09,843 - Sent coordinates: J1=-1.52, J2=1.57, J3=1.57, J4=-1.57, J5=1.57, J6=0
2025-03-17 13:57:53,076 - Sent coordinates: J1=-1.52, J2=-1.57, J3=1.57, J4=-1.57, J5=1.57, J6=0
2025-03-17 13:57:56,509 - Sent coordinates: J1=-1.52, J2=-1.52, J3=1.57, J4=-1.57, J5=1.57, J6=0
2025-03-17 13:58:02,685 - Sent coordinates: J1=-1.52, J2=-1.52, J3=1.62, J4=-1.57, J5=1.57, J6=0
2025-03-17 13:58:05,453 - Sent coordinates: J1=-1.52, J2=-1.52, J3=1.62, J4=-1.57, J5=1.57, J6=0.05
2025-03-17 13:58:05,578 - Sent coordinates: J1=-1.52, J2=-1.52, J3=1.62, J4=-1.57, J5=1.57, J6=0.1
2025-03-17 13:58:08,549 - Sent coordinates: J1=-1.52, J2=-1.52, J3=1.62, J4=-1.57, J5=1.62, J6=0.1
2025-03-17 13:58:50,362 - Sent script:
movej([-1.52,-1.52,1.62,-1.57,1.62,0.1], a=0.2, v=0.2)
2025-03-17 13:59:04,940 - Sent script:
movej([-1,-1.52,1.62,-1.57,1.62,0.1], a=0.2, v=0.2)
2025-03-17 13:59:09,310 - Sent script:
movej([-1,-1.52,1.62,-1.57,1.62,0.1], a=0.2, v=0.2)
2025-03-17 14:09:55,622 - Sent script:
movej([-1,-1.52,1.62,-1.57,1.62,0.1], a=0.2, v=0.2)
2025-03-17 14:15:11,836 - Sent coordinates: J1=-1.52, J2=-1.57, J3=1.57, J4=-1.57, J5=1.57, J6=0
2025-03-17 14:16:04,677 - Sent coordinates: J1=1, J2=1, J3=1, J4=1, J5=1, J6=1
2025-03-17 14:18:45,965 - Sent script:
 movej([-1.52,-1.57,1.57,-1.57,1.57,0], a=0.2, v=0.2)
2025-03-17 14:18:58,167 - Sent script:
 movej([-1,-1.57,1.57,-1.57,1.57,0], a=0.2, v=0.2)
2025-03-17 14:24:58,098 - Sent script:
movej([-1, 1, 1, 1, 1, 1])
2025-03-17 14:25:39,110 - Sent script:
movej([-1, 1, 1, 1, 1, 1])
2025-03-17 14:25:56,161 - Sent script:
movej([-1, 1, 1, 1, 1, 1])
2025-03-17 14:25:58,952 - Sent script:
movej([-1, 1, 1, 1, 1, 1])
2025-03-17 14:26:08,991 - Sent script:
s
2025-03-17 14:26:21,855 - Sent script:
122222222222222222222222222222222
2025-03-17 14:26:26,279 - Sent script:
122222222222222222222222222222222
2025-03-17 14:34:08,605 - Sent script:
122222222222222222222222222222222
